X:115
T:Lord How's Jigg THO4.115
M:6/8
L:1/8
Z:vmp. Peter Dunk 2010/11.from a transcription by Fynn Titford-Mock 2007
B:Thompson's Compleat Collection of 200 Favourite Country Dances Volume IV.
Q:3/8=120
K:A
EFE|F2 F EFE| A2 A B2 c|d2 c BcA|G2 F EFE|\
F2 F EFE| A2 A B2 c|d2 c BAG|A3:|
|:efe|c2 A B2 c|d2 d ded|B2 G A2B|c2 c cdc|\
BcB ABA| GFE Bcd|cBA EAG|A3:|
